X:183
T: Der Abram ist gestorben (3-21), S. 54
N: K1158
O: Luxemburg
S: KINTZELE, Guillaume: An der Ucht, Bd. 3 Luxemburg 1928]
N: in der Quelle mit einer 2. Stimme versehen
R: historisches, Legendenlied]
M: 2/4
L: 1/16
K: F
C2 | F3EF2G2 | A4G4 | F4z2
G2 | A3GA2B2 | c4B4 | A4z4
c2c2c2A2 | d2d2d4
B2B2B2G2 | c2c2c2C2
F3EF2G2 | A4G4 | F4z2

